src/images/icon/icon_color_costReduction.svg

<svg height="48" viewBox="0 0 48 48" width="48" xmlns="http://www.w3.org/2000/svg"><g fill="none" fill-rule="evenodd"><circle cx="24" cy="24" fill="#ffece0" r="24"/><g transform="translate(12 12)"><g fill="#f79d5e"><path d="m11 2h2c.5522847 0 1 .44771525 1 1v18h-4v-18c0-.55228475.4477153-1 1-1z"/><path d="m5 7h2c.55228475 0 1 .44771525 1 1v13h-4v-13c0-.55228475.44771525-1 1-1z"/><path d="m17 10h2c.5522847 0 1 .4477153 1 1v10h-4v-10c0-.5522847.4477153-1 1-1z"/></g><path d="m3 21h18" stroke="#f79d5e" stroke-linecap="round" stroke-width="2.4"/></g></g></svg>

<?xml version="1.0" encoding="UTF-8"?>
<svg width="48px" height="48px" viewBox="0 0 48 48" version="1.1" xmlns="http://www.w3.org/2000/svg" xmlns:xlink="http://www.w3.org/1999/xlink">
    <title>icon_color_costReduction</title>
    <g id="Dashboard" stroke="none" stroke-width="1" fill="none" fill-rule="evenodd">
        <g id="01-概览" transform="translate(-1328.000000, -370.000000)">
            <g id="数据" transform="translate(244.000000, 264.000000)">
                <g id="编组-3备份-3" transform="translate(878.000000, 72.000000)">
                    <g id="编组-5" transform="translate(206.000000, 34.000000)">
                        <circle id="icon_color_costReduction" fill="#FFECE0" cx="24" cy="24" r="24"></circle>
                        <g id="编组-15" transform="translate(12.000000, 12.000000)">
                            <path d="M11,2 L13,2 C13.5522847,2 14,2.44771525 14,3 L14,21 L14,21 L10,21 L10,3 C10,2.44771525 10.4477153,2 11,2 Z" id="矩形" fill="#F79D5E"></path>
                            <path d="M5,7 L7,7 C7.55228475,7 8,7.44771525 8,8 L8,21 L8,21 L4,21 L4,8 C4,7.44771525 4.44771525,7 5,7 Z" id="矩形备份-2" fill="#F79D5E"></path>
                            <path d="M17,10 L19,10 C19.5522847,10 20,10.4477153 20,11 L20,21 L20,21 L16,21 L16,11 C16,10.4477153 16.4477153,10 17,10 Z" id="矩形备份-4" fill="#F79D5E"></path>
                            <line x1="3" y1="21" x2="21" y2="21" id="路径-3" stroke="#F79D5E" stroke-width="2.4" stroke-linecap="round"></line>
                        </g>
                    </g>
                </g>
            </g>
        </g>
    </g>
</svg>
